svg/color/frax.svg

<svg width="32" height="32" viewBox="0 0 32 32" fill="none" xmlns="http://www.w3.org/2000/svg">
<path d="M15.9977 31.9653C24.8156 31.9653 31.964 24.8169 31.964 15.999C31.964 7.181 24.8156 0.0326233 15.9977 0.0326233C7.17969 0.0326233 0.031311 7.181 0.031311 15.999C0.031311 24.8169 7.17969 31.9653 15.9977 31.9653Z" fill="black"/>
<path d="M7.1898 7.11818C6.51658 7.82505 5.96119 8.41972 5.95557 8.43094C5.94996 8.44777 6.55586 9.04244 7.302 9.74931C8.04814 10.4618 8.69891 11.0845 8.74379 11.1238L8.82794 11.2023L8.67647 11.4548C7.34688 13.6539 7.07198 16.3019 7.90789 18.7367C8.06497 19.1967 8.33426 19.7858 8.56427 20.1729C8.67647 20.3636 8.72696 20.487 8.71574 20.5095C8.70452 20.5319 8.0257 21.25 7.20663 22.1084C6.38755 22.9611 5.71995 23.6736 5.70873 23.6848C5.70312 23.7016 7.99765 25.9176 8.21644 26.0971L8.3006 26.1701L9.59653 24.818C10.309 24.0719 10.9766 23.3706 11.0776 23.264L11.2683 23.0733L11.4479 23.1855C12.3623 23.7689 13.4338 24.1729 14.6176 24.3861C15.2122 24.4926 16.3455 24.5207 16.9794 24.4422C18.2024 24.3019 19.4142 23.8924 20.4072 23.2921L20.6653 23.135L20.9401 23.4043C21.5404 23.9877 23.7845 26.1196 23.8069 26.1308C23.8293 26.142 26.2922 23.567 26.2866 23.5333C26.281 23.5165 24.5923 21.8952 23.5601 20.9246L23.2178 20.5992L23.3749 20.3412C24.6933 18.1476 24.9682 15.4884 24.1155 13.0368C23.992 12.6778 23.6162 11.8699 23.3974 11.4997L23.2908 11.3145L24.7326 9.80541C25.5236 8.98073 26.1688 8.29069 26.1631 8.27386C26.1407 8.21776 23.6162 5.83346 23.5825 5.83346C23.5601 5.83346 22.9261 6.47863 22.1688 7.27526C21.4114 8.06628 20.7831 8.71705 20.7662 8.72266C20.755 8.72827 20.6821 8.69461 20.6148 8.64412C20.424 8.51509 19.9416 8.25142 19.6723 8.12799C18.8532 7.75212 18.0902 7.5221 17.2038 7.39307C16.7438 7.32575 15.3637 7.31453 14.9373 7.37624C13.9163 7.5221 13.0804 7.77456 12.2277 8.20092C11.9808 8.31874 11.6947 8.47582 11.5825 8.54314L11.3805 8.66656L11.1505 8.44216C11.0271 8.31874 10.4661 7.79139 9.91069 7.25843C9.35529 6.73108 8.78868 6.19251 8.65403 6.05787L8.40719 5.81663L7.1898 7.11818ZM16.6092 10.776C17.5012 10.8826 18.2978 11.1855 19.0327 11.7016C19.4086 11.9653 19.9696 12.5263 20.2333 12.9022C21.7312 15.0228 21.4451 17.9064 19.5601 19.6736C17.95 21.1771 15.6218 21.5137 13.6638 20.5151C12.2501 19.7914 11.2515 18.4674 10.9317 16.8797C10.8308 16.3748 10.8308 15.4323 10.9317 14.933C11.0271 14.4394 11.1561 14.0859 11.3974 13.5922C12.3623 11.6511 14.4549 10.5179 16.6092 10.776Z" fill="white"/>
</svg>

<svg xmlns="http://www.w3.org/2000/svg" width="32" height="32" fill="none" viewBox="0 0 32 32"><path fill="#000" d="M15.998 31.965c8.818 0 15.966-7.148 15.966-15.966S24.816.033 15.998.033.03 7.18.03 15.999s7.15 15.966 15.968 15.966"/><path fill="#fff" d="M7.19 7.118a92 92 0 0 0-1.234 1.313c-.006.017.6.611 1.346 1.318.746.713 1.397 1.335 1.442 1.375l.084.078-.152.253a8.61 8.61 0 0 0-.768 7.282c.157.46.426 1.049.656 1.436.112.19.163.314.152.337-.011.022-.69.74-1.51 1.598-.818.853-1.486 1.566-1.497 1.577-.006.017 2.289 2.233 2.507 2.412l.085.073 1.296-1.352 1.48-1.554.191-.19.18.111c.914.584 1.986.988 3.17 1.201.594.107 1.728.135 2.361.056a8.65 8.65 0 0 0 3.428-1.15l.258-.157.275.27c.6.583 2.845 2.715 2.867 2.726s2.485-2.564 2.48-2.598a213 213 0 0 0-2.727-2.608l-.342-.326.157-.258a8.63 8.63 0 0 0 .74-7.304 11.6 11.6 0 0 0-.718-1.537l-.106-.185 1.442-1.51c.79-.824 1.436-1.514 1.43-1.531-.022-.056-2.547-2.44-2.58-2.44-.023 0-.657.645-1.414 1.441a77 77 0 0 1-1.403 1.448c-.011.005-.084-.028-.151-.079a8.7 8.7 0 0 0-3.411-1.251c-.46-.067-1.84-.078-2.267-.017-1.02.146-1.857.399-2.71.825a9 9 0 0 0-.645.342l-.202.124-.23-.225c-.123-.123-.684-.65-1.24-1.184a141 141 0 0 1-1.256-1.2l-.247-.241zm9.42 3.658c.891.107 1.688.41 2.423.926.376.263.937.824 1.2 1.2a5.176 5.176 0 0 1-.673 6.772 5.155 5.155 0 0 1-5.896.841 5.2 5.2 0 0 1-2.732-3.635c-.101-.505-.101-1.448 0-1.947.095-.494.224-.847.465-1.34a5.15 5.15 0 0 1 5.212-2.817"/></svg>
